material/.icons/material/lighthouse.svg

<svg xmlns="http://www.w3.org/2000/svg" viewBox="0 0 24 24"><path d="M8 10V8h1V4H8V3l4-2 4 2v1h-1v4h1v2h-1.26l-6.3 3.64L9 10H8m5-2V4h-2v4h2M7 23l.04-.24 9.11-5.26.52 3.38L13 23H7m1.05-6.83L15.31 12l.52 3.37-8.4 4.85.62-4.05z"/></svg>

<?xml version="1.0" encoding="UTF-8"?><!DOCTYPE svg PUBLIC "-//W3C//DTD SVG 1.1//EN" "http://www.w3.org/Graphics/SVG/1.1/DTD/svg11.dtd"><svg xmlns="http://www.w3.org/2000/svg" xmlns:xlink="http://www.w3.org/1999/xlink" version="1.1" id="mdi-lighthouse" width="24" height="24" viewBox="0 0 24 24"><path d="M8,10V8H9V4H8V3L12,1L16,3V4H15V8H16V10H14.74L8.44,13.64L9,10H8M13,8V4H11V8H13M7,23L7.04,22.76L16.15,17.5L16.67,20.88L13,23H7M8.05,16.17L15.31,12L15.83,15.37L7.43,20.22L8.05,16.17Z" /></svg>
